X: 285
T: Mac's Hornpipe
%R: reel, hornpipe
Z: 2014 John Chambers <jc:trillian.mit.edu>
B: Preston "Twenty four Country Dances for the Year 1796" p.123 #1
F: http://www.vwml.org/browse/browse-collections-dance-tune-books/browse-prestons1796# 2014-8-10
N: The 2nd strain has initial repeat but no final repeat; not fixed.
M: C|
L: 1/8
K: G
|:\
[g2B2D2G,2] fe dB {d}cB/A/ | B>GEA GFED |\
B,GDG CGEG | AcEA GFED | g2fe dcBA |
B>GEA GFED | B,DGD CEAc | BGDF G4 ::\
Adfd adfd | efge d^cBA | FAdA GB eg |
fdBe d^cBA | Adfd adfd | efge d^cBA |\
BgAf GeFd | Ad^ce d=c BA |]
% - - - - - - - - - - - - - - - - - - - - - - - - -
%%begintext align
%% Turn your Partner with the right hand & cast off one Cu: .|
%% turn again & cast off another Cu: :| lead up to the top &
%% cast off .| Allemande :|: hands 4 at bottom & back again .||
%% lead thro' the top & cast off right & left .||.
%%endtext
% - - - - - - - - - - - - - - - - - - - - - - - - -

%%sep 1 1 500
%%sep 1 1 500
